src/raw/car/icon_24.svg

<svg width="24" height="24" viewBox="0 0 24 24" fill="none" xmlns="http://www.w3.org/2000/svg">
<path d="M22.875 8.625L21.75 9L21 10.5L19.1776 4.4253C18.9238 3.57933 18.1452 3 17.2619 3H6.73806C5.85484 3 5.0762 3.57934 4.82241 4.4253L3 10.5L2.25 9L1.125 8.625" stroke="#71717A" stroke-width="1.5" stroke-linecap="round" stroke-linejoin="round"/>
<path d="M1.5 19.468V21C1.5 21.3978 1.65804 21.7794 1.93934 22.0607C2.22064 22.342 2.60218 22.5 3 22.5C3.39782 22.5 3.77936 22.342 4.06066 22.0607C4.34196 21.7794 4.5 21.3978 4.5 21V19.555" stroke="#71717A" stroke-width="1.5" stroke-linecap="round" stroke-linejoin="round"/>
<path d="M22.5 19.468V21C22.5 21.3978 22.342 21.7794 22.0607 22.0607C21.7794 22.342 21.3978 22.5 21 22.5C20.6022 22.5 20.2206 22.342 19.9393 22.0607C19.658 21.7794 19.5 21.3978 19.5 21V19.5766" stroke="#71717A" stroke-width="1.5" stroke-linecap="round" stroke-linejoin="round"/>
<path d="M2.75 10.5H12H21.25C21.7804 10.5 22.2891 10.7299 22.6642 11.139C23.0393 11.5482 23.25 12.1032 23.25 12.6818V18.4091C23.25 18.6984 23.1446 18.9759 22.9571 19.1805C22.7696 19.3851 22.5152 19.5 22.25 19.5H1.75C1.48478 19.5 1.23043 19.3851 1.04289 19.1805C0.855357 18.9759 0.75 18.6984 0.75 18.4091V12.6818C0.75 12.1032 0.960714 11.5482 1.33579 11.139C1.71086 10.7299 2.21957 10.5 2.75 10.5Z" stroke="#71717A" stroke-width="1.5" stroke-linecap="round" stroke-linejoin="round"/>
<path d="M0.75 14.25H5L6.125 16.5" stroke="#71717A" stroke-width="1.5" stroke-linecap="round" stroke-linejoin="round"/>
<path d="M14.25 16.5H9.75" stroke="#71717A" stroke-width="1.5" stroke-linecap="round" stroke-linejoin="round"/>
<path d="M23.25 14.25H19L17.875 16.5" stroke="#71717A" stroke-width="1.5" stroke-linecap="round" stroke-linejoin="round"/>
</svg>

<svg xmlns="http://www.w3.org/2000/svg" width="24" height="24" fill="none" viewBox="0 0 24 24">
  <path stroke="#3F3F46" stroke-linecap="round" stroke-linejoin="round" stroke-width="1.5"
    d="M22.875 8.625 21.75 9 21 10.5l-1.822-6.075A2 2 0 0 0 17.262 3H6.738a2 2 0 0 0-1.916 1.425L3 10.5 2.25 9l-1.125-.375M1.5 19.468V21a1.5 1.5 0 0 0 3 0v-1.445M22.5 19.468V21a1.5 1.5 0 1 1-3 0v-1.424" />
  <path stroke="#3F3F46" stroke-linecap="round" stroke-linejoin="round" stroke-width="1.5"
    d="M2.75 10.5h18.5c.53 0 1.04.23 1.414.639.375.41.586.964.586 1.543v5.727c0 .29-.105.567-.293.771a.96.96 0 0 1-.707.32H1.75a.96.96 0 0 1-.707-.32 1.143 1.143 0 0 1-.293-.77v-5.728c0-.579.21-1.134.586-1.543A1.92 1.92 0 0 1 2.75 10.5Z" />
  <path stroke="#3F3F46" stroke-linecap="round" stroke-linejoin="round" stroke-width="1.5"
    d="M.75 14.25H5l1.125 2.25M14.25 16.5h-4.5M23.25 14.25H19l-1.125 2.25" />
</svg>
